azure-patterns/svg-governance-dark.svg

<svg xmlns="http://www.w3.org/2000/svg" viewBox="0 0 117 130">
                                
                            
    <path d="M57.3266 82.9685C67.2567 82.9685 75.3066 74.9365 75.3066 65.0285C75.3066 55.1205 67.2567 47.0885 57.3266 47.0885C47.3966 47.0885 39.3467 55.1205 39.3467 65.0285C39.3467 74.9365 47.3966 82.9685 57.3266 82.9685Z" fill="#1A1A1F"></path>
    <path d="M87.2933 56.9685C92.1864 56.9685 96.153 53.0106 96.153 48.1285C96.153 43.2463 92.1864 39.2885 87.2933 39.2885C82.4002 39.2885 78.4336 43.2463 78.4336 48.1285C78.4336 53.0106 82.4002 56.9685 87.2933 56.9685Z" fill="#1A1A1F"></path>
    <path d="M87.2933 90.7685C92.1864 90.7685 96.153 86.8107 96.153 81.9285C96.153 77.0463 92.1864 73.0885 87.2933 73.0885C82.4002 73.0885 78.4336 77.0463 78.4336 81.9285C78.4336 86.8107 82.4002 90.7685 87.2933 90.7685Z" fill="#1A1A1F"></path>
    <path d="M109.443 101.168C113.616 101.168 116.999 97.7927 116.999 93.6285C116.999 89.4643 113.616 86.0885 109.443 86.0885C105.269 86.0885 101.886 89.4643 101.886 93.6285C101.886 97.7927 105.269 101.168 109.443 101.168Z" fill="#1A1A1F"></path>
    <path d="M109.443 43.9685C113.616 43.9685 116.999 40.5928 116.999 36.4285C116.999 32.2643 113.616 28.8885 109.443 28.8885C105.269 28.8885 101.886 32.2643 101.886 36.4285C101.886 40.5928 105.269 43.9685 109.443 43.9685Z" fill="#1A1A1F"></path>
    <path d="M109.443 72.5685C113.616 72.5685 116.999 69.1928 116.999 65.0285C116.999 60.8643 113.616 57.4885 109.443 57.4885C105.269 57.4885 101.886 60.8643 101.886 65.0285C101.886 69.1928 105.269 72.5685 109.443 72.5685Z" fill="#1A1A1F"></path>
    <path d="M83.5156 103.971C82.4941 103.971 81.5456 104.276 80.743 104.783L80.7352 104.77L57.3274 118.037L10.4232 91.4472V38.5528L57.3274 11.9626L80.7326 25.233L80.7404 25.22C81.5456 25.727 82.4915 26.0312 83.513 26.0312C86.3924 26.0312 88.7246 23.7042 88.7246 20.8312C88.7246 18.8526 87.6041 17.1548 85.9755 16.2734L85.9911 16.25L57.3274 0L0 32.5V97.5L57.3274 130L85.9911 113.75L85.9781 113.727C87.6067 112.848 88.7272 111.147 88.7272 109.169C88.7272 106.298 86.395 103.971 83.5156 103.971Z" fill="#1A1A1F"></path>
</svg>

<svg xmlns="http://www.w3.org/2000/svg" viewBox="0 0 117 130"><path d="M57.327 82.969c9.93 0 17.98-8.032 17.98-17.94 0-9.908-8.05-17.94-17.98-17.94s-17.98 8.032-17.98 17.94c0 9.907 8.05 17.94 17.98 17.94zM87.293 56.968c4.893 0 8.86-3.957 8.86-8.84 0-4.882-3.967-8.84-8.86-8.84-4.893 0-8.86 3.958-8.86 8.84 0 4.883 3.967 8.84 8.86 8.84zM87.293 90.769c4.893 0 8.86-3.958 8.86-8.84 0-4.883-3.967-8.84-8.86-8.84-4.893 0-8.86 3.957-8.86 8.84 0 4.882 3.967 8.84 8.86 8.84zM109.443 101.168c4.173 0 7.556-3.375 7.556-7.54 0-4.164-3.383-7.54-7.556-7.54-4.174 0-7.557 3.376-7.557 7.54 0 4.165 3.383 7.54 7.557 7.54zM109.443 43.968c4.173 0 7.556-3.375 7.556-7.54 0-4.164-3.383-7.54-7.556-7.54-4.174 0-7.557 3.376-7.557 7.54 0 4.165 3.383 7.54 7.557 7.54zM109.443 72.569c4.173 0 7.556-3.376 7.556-7.54 0-4.165-3.383-7.54-7.556-7.54-4.174 0-7.557 3.375-7.557 7.54 0 4.164 3.383 7.54 7.557 7.54z" fill="#1A1A1F"/><path d="M83.516 103.971c-1.022 0-1.97.305-2.773.812l-.008-.013-23.408 13.267-46.904-26.59V38.553l46.904-26.59 23.406 13.27.007-.013a5.184 5.184 0 0 0 2.773.811 5.204 5.204 0 0 0 5.212-5.2c0-1.978-1.12-3.676-2.75-4.558l.016-.023L57.327 0 0 32.5v65L57.327 130l28.664-16.25-.013-.023c1.629-.879 2.75-2.58 2.75-4.558a5.204 5.204 0 0 0-5.212-5.198z" fill="#1A1A1F"/></svg>
